X:1
T:So viel Stern' am Himmel stehen
T:Konrad Max Kunz
T:So viel Stern' am Himmel stehen 
T:CPDL   —   Creative Commons Attribution Non Commercial 3.0
C:Konrad Max Kunz
Z:CPDL   —   Creative Commons Attribution Non Commercial 3.0
%%score [ ( 1 2 ) ( 3 4 ) ]
L:1/8
Q:1/4=90
M:3/4
K:G
V:1 treble nm="S\nA"
V:2 treble 
V:3 bass nm="T\nB"
V:4 bass 
V:1
"^Andantino" GA | B2 B2 cA | ed d2 Bd | dc c2 dc | B3 z | GA | B2 B2 cA | ed d2 Bd | dc c2 dc | %9
w: 1.   So viel|Stern am Him- mel|ste- * hen, an dem|güld- * nen blau- en|Zelt;|so viel|Schäf- lein, als da|ge- * hen in dem|grü- * nen, grü- nen|
w: 2.   Soll ich|dich denn nim- mer|se- * hen nun ich|e- * wig fer- ne|muss?|Ach, das|kann ich nicht ver-|ste- * hen, o du|bitt'- * rer Schei- dens-|
w: 3. Weiss nicht,|ob auf die- ser|Er- * den, die des|her- * ben Jam- mers|voll,|nach viel|Trüb- sal und Be-|schwer- * den ich dich|wie- * der- se- hen|
w: 4.   Mit Ge-|duld will ich es|tra- * gen, denk’ ich|im- * mer nur zu|dir;|al- le|Mor- gen will ich|sa- * gen: O mein|Lieb, * wann kommst zu|
w: 5.   Ja, ich|will dich nicht ver-|ges- * sen, en- den|nie _ die Lie- be|mein,|wenn ich|soll- te un- ter-|des- * sen auf dem|Tod- * bett schla- fen|
 B3 z | dB | BA A2 ec | cB B2 dB | BA A2 ec | cB B2 | GA | B2 B2 cA | (!>!e2 d2) Bd | dc c2 dc | %19
w: Feld;|so viel|Vög- * lein, als da|flie- * gen als da|hin _ und wie- der|flie- * gen:|so viel|mal sei du ge-|grüßt, _ so viel|mal _ sei du ge-|
w: schluss!|Wär' ich|lie- * ber schon ge-|stor- * ben, eh’ ich|mir _ ein Lieb er-|wor- * ben,|wär’ ich|jet- zo nicht be-|trübt, _ wär’ ich|jet- * zo nicht be-|
w: soll.|Was für|Wel- * len, was für|Flam- * men schla- gen|ü- * ber mir zu-|sam- * men,|ach, wie|groß ist mei- ne|Not, _ ach, wie|groß _ ist mei- ne|
w: mir?|Al- le|A- * bend will ich|spre- * chen, wenn mir|mei- * ne Äug- lein|bre- * chen:|O mein|Lieb, ge- denk an|mich, _ o mein|Lieb, _ ge- denk an|
w: ein.|Auf dem|Kirch- * hof will ich|lie- * gen wie ein|Kind- * lein in der|Wie- * gen,|das die|Lieb tut wie- gen|ein, _ das die|Lieb _ tut wie- gen|
 B3 !fermata!z |] %20
w: grüßt!|
w: trübt.|
w: Not!|
w: mich!|
w: ein.|
V:2
 GF | G2 G2 GG | G2 G2 GB | BA A2 BA | G3 x | GF | G2 G2 GG | G2 G2 GB | BA A2 BA | G3 x | BG | %11
 GF F2 cA | AG G2 DD | D2 D2 DD | DD D2 | DF | G2 G2 AF | (c2 B2) GB | BA A2 BA | G3 x |] %20
V:3
 B,D | D2 B,2 A,C | CB, B,2 DD | D2 D2 DD | D3 z | B,D | D2 B,2 A,C | CB, B,2 DD | D2 D2 DD | %9
 D3 z | G,G, | D2 D2 DD | D2 D2 B,G, | G,F, F,2 CA, | A,G, G,2 | DC | B,2 B,2 A,A, | G,4 DD | %18
 D2 D2 DD | D3 !fermata!z |] %20
V:4
 G,D, | G,2 G,2 G,G, | G,2 G,2 G,G, | D,2 D,2 D,D, | G,3 x | G,D, | G,2 G,2 G,G, | G,2 G,2 G,G, | %8
 D,2 D,2 D,D, | G,3 x | G,G, | D,2 D,2 D,D, | G,2 G,2 G,,B,, | D,2 D,2 D,D, | G,,2 G,,2 | B,A, | %16
 G,2 G,2 D,D, | G,,4 G,G, | D,2 D,2 D,D, | G,3 x |] %20

